!!!COM: Bach, Johann Sebastian
!!!CDT: 1685/02/21/-1750/07/28/
!!!OTL@@DE:	Jesu Leiden, Pein und Tod
!!!SCT: BWV 159/5
!!!PC#:	61
!!!AGN: chorale
**harm	**kern	**kern	**kern	**kern
*	*ICvox	*ICvox	*ICvox	*ICvox
*	*Ibass	*Itenor	*Ialto	*Isoprn
*	*I"Bass	*I"Tenor	*I"Alto	*I"Soprano
*	*	*oclefC4	*oclefC3	*oclefC1
*	*clefF4	*clefGv2	*clefG2	*clefG2
*k[b-e-a-]	*k[b-e-a-]	*k[b-e-a-]	*k[b-e-a-]	*k[b-e-a-]
*E-:	*E-:	*E-:	*E-:	*E-:
*M4/4	*M4/4	*M4/4	*M4/4	*M4/4
*met(c)	*met(c)	*met(c)	*met(c)	*met(c)
*MM100	*MM100	*MM100	*MM100	*MM100
=1-	=1-	=1-	=1-	=1-
I	4E-	4B-	4e-	4g
V7	4BB-	4A-	4d	4f
vi	4C	4G	4c	4e-
V6	4D	4F	4B-	4f
=2	=2	=2	=2	=2
I	4E-	4E-	4B-	4g
A-:IV6	4F	4d-	4A-	4a-
V65	2G;	2d-;	2e-;	2b-;
=3	=3	=3	=3	=3
I	4A-	4c	4e-	4cc
E-:V7	8B-L	8dnXL	8a-L	8b-L
iii6	8B-J	8dJ	8gJ	8b-J
IV65	8cL	8e-L	8gL	8a-L
vii%2	8cJ	8dJ	8fJ	8a-J
I64	8B-L	8e-L	8e-L	8gL
ii65	8A-J	8cJ	8e-J	8fJ
=4	=4	=4	=4	=4
V	4B-	4B-	4d	4f
V7	4BB-	8A-	4d	4f
I;	2E-;	2G;	2B-;	2e-;
=5	=5	=5	=5	=5
I	4E-	4B-	4e-	4g
V6	4D	4B-	4f	4b-
IV6	4C	4c	4e-	4a-
vi	4C	4e-	4g	4g
=6	=6	=6	=6	=6
c:ii%2	8CL	8A-L	8dL	8fL
V65	8BBJ	8GJ	8dJ	8fJ
i	4C	4G	4c	4e-
V;	2G;	2G;	2B;	2d;
=7	=7	=7	=7	=7
i	4C	4G	4c	4e-
E-:V	8B-XL	8B-XL	8dL	8fL
V2	8A-J	8B-J	8dJ	8fJ
I6	4G	4B-	4e-	4g
I	4E-	4B-	4e-	4g
=8	=8	=8	=8	=8
IV6	8CL	8cL	8e-L	8a-L
viio6	8FJ	8A-J	8dJ	8a-J
viio	8DL	8FL	8fL	8a-L
V7	8BB-J	8B-J	8dJ	8a-J
I;	2E-;	2B-;	2e-;	2g;
=9	=9	=9	=9	=9
vi	4C	4c	4e-	4g
IV	4AA-	4c	4e-	4a-
f:viio6	4GG	4B-	4e	4b-
i	4F	4c	4f	4a-
=10	=10	=10	=10	=10
ii%2	8FL	8B-L	8d-L	8gL
V65	8EJ	8B-J	8cJ	8gJ
i	4F	4A-	4c	4f
V;	2C;	2G;	2e;	2g;
=11	=11	=11	=11	=11
i	4F	4A-	4c	4f
i6	8A-L	8cL	8cL	8fL
E-:V2	8A-J	8B-J	8dJ	8fJ
I6	4G	4B-	4e-	4g
b-:VI	8G-L	8B-L	8d-L	8b-L
ii%43	8G-J	8cJ	8e-J	8b-J
=12	=12	=12	=12	=12
V(64)	4F	4d-	4f	4b-
V	4F	4c	4f	4a
I;	2BB-;	2d;	2f;	2b-;
=13	=13	=13	=13	=13
I6	4D	4B-	4f	4b-
E-:I	4E-	4B-	4e-	4g
vi6	4E-	4e-	4g	4cc
iii	4G	4d	4g	4b-
=14	=14	=14	=14	=14
IV2	8GL	8cL	8e-L	8a-L
viio6	8FJ	8dJ	8fJ	8a-J
I6	4G	4e-	4B-	4g
V;	2B-;	2B-;	2d;	2f;
=15	=15	=15	=15	=15
I	4E-	4B-	4e-	4g
V6	4D	4F	4B-	4b-
IV6	8CL	8E-L	8e-L	8a-L
viio2	8CJ	8DJ	8fJ	8a-J
I64	8BB-L	8E-L	8gL	8gL
ii%65	8AA-J	8E-J	8cJ	8fJ
=16	=16	=16	=16	=16
V	4BB-	4B-	4d	4f
V7	4BB-	8A-	4d	4f
I;	2EE-;	2G;	2B-;	2e-;
==	==	==	==	==
*-	*-	*-	*-	*-
!!!YOR1: 371 vierstimmige Choralges&auml;nge von Johann Sebastian Bach, 
!!!YOR2: 4th ed. by Alfred D&ouml;rffel (Leipzig: Breitkopf und H&auml;rtel, 
!!!YOR2: c.1875). 178 pp. Plate "V.A.10".  reprint: J.S. Bach, 371 Four-Part 
!!!YOR4: Chorales (New York: Associated Music Publishers, Inc., c.1940).
!!!SMS: B&H, 4th ed, Alfred D&ouml;rffel, c.1875, plate V.A.10
!!!EED:  Craig Stuart Sapp
!!!EEV:  2009/05/22
